X:1
T:Opening Hymn
T:Opening Hymn
T:Tullius Clinton O’Kane
T:Frances Jane (Fanny) Crosby, 1881
T:Public Domain Courtesy of the Cyber Hymnal™
C:Tullius Clinton O’Kane
Z:Public Domain
Z:Courtesy of the Cyber Hymnal™
%%score ( 1 2 ) ( 3 4 )
L:1/8
Q:1/4=100
M:3/4
K:Bb
V:1 treble 
V:2 treble 
V:3 bass 
V:4 bass 
V:1
 [DF]2 | [DF]3 [EF] F[DF] | [EG][DF] [FB]2 [FB]2 | [Ac]3 [FB] [Fd][Ec] | [DB]3 z [DF]2 | %5
w: 1.~A-|no- ther Sab- bath|day has come, A-|no- ther week is|o’er; And|
w: 2.~Our|Sun- day school, our|Sun- day school; No|place on earth so|dear! How|
w: 3.~Oh,|may the seed thus|ear- ly sown Spring|up on good- ly|ground, And|
 [DF]3 F F[EF] | [EG][DF] [DB]2 [Fd]2 | [Fc]3 [=EG] [EA][EG] | [CF]4 F2 | [Fc]>[F=B] [Fc]2 [Ad]2 | %10
w: we, a grate- ful,|hap- py throng, Are|ga- thered here once|more: We|meet to sing of|
w: ma- ny pre- cious|souls have found The|way to glo- ry|here; And|now a- round the|
w: in our hearts, our|souls and lives May|fruit of grace a-|bound— Im-|mor- tal fruit, that|
 [GB]>A [GB]2 [GB]2 | [Ge]3 [Gd] [Gc][GB] | [Fc]4 F2 | [Fd]>[=E^c] [Fd]2 [^Fc]2 | %14
w: Je- sus’ love, And|bow to Him in|prayer, We|meet to read His|
w: shin- ing throne They|wait for us to|come And|share with them the|
w: yet shall bloom In|par- a- dise a-|bove, Where|we, with those now|
 [GB]>[FA] !fermata![EG]2 [EG]2 | F3 F [=EG][_EA] | [DB]4 |] %17
w: ho- ly Word, And|learn our du- ty|there.|
w: fade- less love Of|their e- ter- nal|home.|
w: gone be- fore, Shall|sing re- deem- ing|love.|
V:2
 x2 | x4 F x | x6 | x6 | x6 | x3 F F x | x6 | x6 | x4 F2 | x6 | x3/2 A/ x4 | x6 | x4 F2 | x6 | x6 | %15
 F3 F x2 | x4 |] %17
V:3
 [B,,B,]2 | [B,,B,]3 [C,A,] [D,B,][B,,B,] | [B,,B,][B,,B,] [B,,D]2 [D,B,]2 | %3
 [F,E]3 [F,D] [F,B,][F,A,] | [B,,B,]3 z [B,,B,]2 | [B,,B,]3 [E,C] [D,B,][C,A,] | %6
 [B,,B,][B,,B,] [B,,F,]2 [B,,F,]2 | [C,A,]3 [C,C] [C,C][C,B,] | [F,A,]4 [F,A,]2 | %9
 [F,E]>[F,D] [F,E]2 [^F,D]2 | [G,D]>[^F,D] [G,D]2 [G,D]2 | [C,C]3 [D,C] [E,C][=E,C] | %12
 A,4 ([D,B,][C,A,]) | [B,,B,]>[B,,B,] [B,,B,]2 [D,A,]2 | [E,G,]>[E,A,] !fermata![E,B,]2 [C,C]2 | %15
 [F,A,]3 [F,A,] [F,C][F,C] | [B,,B,]4 |] %17
V:4
 x2 | x6 | x6 | x6 | x6 | x6 | x6 | x6 | x6 | x6 | x6 | x6 | (F,2 F,E,) x2 | x6 | x6 | x6 | x4 |] %17

